neru-light-classic/22x22/panel/copy-error.svg

<?xml version="1.0" encoding="UTF-8" standalone="no"?>
<svg
   xmlns:dc="http://purl.org/dc/elements/1.1/"
   xmlns:cc="http://creativecommons.org/ns#"
   xmlns:rdf="http://www.w3.org/1999/02/22-rdf-syntax-ns#"
   xmlns:svg="http://www.w3.org/2000/svg"
   xmlns="http://www.w3.org/2000/svg"
   xmlns:sodipodi="http://sodipodi.sourceforge.net/DTD/sodipodi-0.dtd"
   xmlns:inkscape="http://www.inkscape.org/namespaces/inkscape"
   width="22"
   height="22"
   x="0"
   y="0"
   version="1.1"
   xml:space="preserve"
   id="svg15"
   sodipodi:docname="copy-error.svg"
   inkscape:version="0.92.4 5da689c313, 2019-01-14"><metadata
   id="metadata19"><rdf:RDF><cc:Work
       rdf:about=""><dc:format>image/svg+xml</dc:format><dc:type
         rdf:resource="http://purl.org/dc/dcmitype/StillImage" /></cc:Work></rdf:RDF></metadata><sodipodi:namedview
   pagecolor="#ffffff"
   bordercolor="#666666"
   borderopacity="1"
   objecttolerance="10"
   gridtolerance="10"
   guidetolerance="10"
   inkscape:pageopacity="0"
   inkscape:pageshadow="2"
   inkscape:window-width="640"
   inkscape:window-height="515"
   id="namedview17"
   showgrid="false"
   inkscape:zoom="10.727273"
   inkscape:cx="11"
   inkscape:cy="11"
   inkscape:window-x="0"
   inkscape:window-y="28"
   inkscape:window-maximized="0"
   inkscape:current-layer="g13" />
 <defs
   id="defs3">
  <style
   id="current-color-scheme"
   type="text/css">
   .ColorScheme-Text { color:#1e333d; } .ColorScheme-Highlight { color:#3fb7ff; }
  </style>
 </defs>
 <g
   transform="matrix(0.83643,0,0,0.83643,0.96286,1.2762)"
   id="g13">
  <path
   style="color:#3fb7ff;fill:#3fb7ff;fill-opacity:1"
   class="ColorScheme-Highlight"
   d="M 22.76,1.286 17.978,10.429 15.607,9.0461 22.324,0.8964 Z"
   id="path5"
   inkscape:connector-curvature="0" />
  <path
   style="color:#3fb7ff;fill:#3fb7ff;fill-opacity:1"
   class="ColorScheme-Highlight"
   d="M 11.273,19.037 7.2178,21.787 5.275,10.28 0.0444,11.027 4.8267,6.8428 6.619,7.4406 Z"
   transform="translate(0,-0.59778)"
   id="path7"
   inkscape:connector-curvature="0" />
  <path
   style="color:#3fb7ff;fill:#3fb7ff;fill-opacity:1"
   class="ColorScheme-Highlight"
   d="m 19.173,12.821 -2.3911,-1.6738 -6.4232,5.4934 0.914,1.799 11.487,3.348"
   id="path9"
   inkscape:connector-curvature="0" />
  <path
   style="color:#3fb7ff;fill:#3fb7ff;fill-opacity:1"
   class="ColorScheme-Highlight"
   d="M 10.804,14.016 9.6089,10.429 13.196,9.2694 15.587,10.429 Z"
   id="path11"
   inkscape:connector-curvature="0" />
 </g>
</svg>

<svg xmlns="http://www.w3.org/2000/svg" width="22" height="22" x="0" y="0" version="1.1" xml:space="preserve" id="svg15"><defs id="defs3"><style id="current-color-scheme" type="text/css">.ColorScheme-Highlight{color:#3fb7ff}</style></defs><g transform="translate(.963 1.276) scale(.83643)" id="g13"><path class="ColorScheme-Highlight" d="M22.76 1.286l-4.782 9.143-2.371-1.383 6.717-8.15z" id="path5" color="#3fb7ff" fill="#3fb7ff" fill-opacity="1"/><path class="ColorScheme-Highlight" d="M11.273 19.037l-4.055 2.75L5.275 10.28l-5.23.747 4.782-4.184 1.792.598z" transform="translate(0 -.598)" id="path7" color="#3fb7ff" fill="#3fb7ff" fill-opacity="1"/><path class="ColorScheme-Highlight" d="M19.173 12.821l-2.391-1.674-6.423 5.494.914 1.799 11.487 3.348" id="path9" color="#3fb7ff" fill="#3fb7ff" fill-opacity="1"/><path class="ColorScheme-Highlight" d="M10.804 14.016l-1.195-3.587 3.587-1.16 2.391 1.16z" id="path11" color="#3fb7ff" fill="#3fb7ff" fill-opacity="1"/></g></svg>
